flags/ba.svg

<svg width="512" height="512" viewBox="0 0 512 512" fill="none" xmlns="http://www.w3.org/2000/svg">
<rect width="512" height="512" fill="var(--flag-palette-blue, #0052b4)"/>
<path d="M0 0L512 512L512 0.000268555L0 0Z" fill="var(--flag-palette-yellow, #ffda44)"/>
<path d="M394.776 481.167H429.65L401.438 501.666L404.795 512H363.205L366.562 501.666L338.35 481.167H373.224L384 448L394.776 481.167ZM330.776 417.167H365.65L337.438 437.666L348.214 470.833L320 450.334L291.786 470.833L302.562 437.666L274.35 417.167H309.224L320 384L330.776 417.167ZM266.776 353.167H301.65L273.438 373.666L284.214 406.833L256 386.334L227.786 406.833L238.562 373.666L210.35 353.167H245.224L256 320L266.776 353.167ZM202.776 289.167H237.65L209.438 309.666L220.214 342.833L192 322.334L163.786 342.833L174.562 309.666L146.35 289.167H181.224L192 256L202.776 289.167ZM138.776 225.167H173.65L145.438 245.666L156.214 278.833L128 258.334L99.7861 278.833L110.562 245.666L82.3496 225.167H117.224L128 192L138.776 225.167ZM74.7764 161.167H109.65L81.4375 181.666L92.2139 214.833L64 194.334L35.7861 214.833L46.5625 181.666L18.3496 161.167H53.2236L64 128L74.7764 161.167ZM10.7764 97.167H45.6504L17.4375 117.666L28.2139 150.833L0 130.334V64L10.7764 97.167Z" fill="var(--flag-palette-white, #eeeeee)"/>
</svg>

<svg xmlns="http://www.w3.org/2000/svg" width="512" height="512" fill="none"><path fill="var(--flag-palette-blue, #0052b4)" d="M0 0h512v512H0z"/><path fill="var(--flag-palette-yellow, #ffda44)" d="m0 0 512 512V0z"/><path fill="var(--flag-palette-white, #eeeeee)" d="M394.8 481.2h34.8l-28.2 20.5 3.4 10.3h-41.6l3.4-10.3-28.2-20.5h34.8L384 448zm-64-64h34.8l-28.2 20.5 10.8 33.1-28.2-20.5-28.2 20.5 10.8-33.1-28.2-20.5h34.8L320 384zm-64-64h34.8l-28.2 20.5 10.8 33.1-28.2-20.5-28.2 20.5 10.8-33.1-28.2-20.5h34.8L256 320zm-64-64h34.8l-28.2 20.5 10.8 33.1-28.2-20.5-28.2 20.5 10.8-33.1-28.2-20.5h34.8L192 256zm-64-64h34.8l-28.2 20.5 10.8 33.1-28.2-20.5-28.2 20.5 10.8-33.1-28.3-20.5h35L128 192zm-64-64h34.9l-28.3 20.5 10.8 33.1L64 194.3l-28.2 20.5 10.8-33.1-28.3-20.5h35L64 128zm-64-64h34.9l-28.3 20.5 10.8 33.1L0 130.3V64z"/></svg>
